X: 15137
T: Gigue à Deux
R: reel
M: 4/4
K: Amajor
B,2 EzGB|:eBGA BcBA|(3GAG FB, EzB,B,|EEGE BEGE|DEFG FDB,D|
EzGB eBGA|BcBA (3GAG FB,|EzB,B, B,CEF|GEAG FDFD|
[1 EzB,E EzGB:|2 EzB,B, B,CEF|:GEAG FDB,D|F2F2 B,CEF|
GEAG FDFD|1 EzB,B, B,CEF:|2 EzB,E EzGB||

